X:1
T:Sechs Lieder für gemischten Chor
T:Ave Maria
T:Robert Franz
T:Emanuel Geibel
T:Ave Maria
T:CPDL   —   Creative Commons Attribution Non Commercial 3.0
T:CPDL   —   Creative Commons Attribution Non Commercial 3.0
T:CPDL   —   Creative Commons Attribution Non Commercial 3.0
T:CPDL   —   Creative Commons Attribution Non Commercial 3.0
C:Robert Franz
Z:Emanuel Geibel
Z:CPDL   —   Creative Commons Attribution Non Commercial 3.0
%%score [ 1 2 3 4 ]
L:1/8
Q:1/4=88
M:4/2
K:F
V:1 treble nm="S"
V:2 treble nm="A"
V:3 treble-8 nm="T"
V:4 bass nm="B"
V:1
"^Ruhig und getragen, doch nicht zu langsam"!p! F4 G2 G2 A4!<(! c4-!<)! | %1
w: A- ve Ma- ri- a!|
!>(! c2!>)! z2 f2 e2 d6 d2 | c2 B2 A2 G2 F2 G2 A2 (GF) |!<(! (E4!<)! G2) G2!>(! C4!>)! z4 | %4
w: _ Meer und Him- mel|ruh'n, von al- len Tür- men hallt der _|Glo- * cken Ton.|
 F4 G2 G2 A4!<(! c4-!<)! |!>(! c2!>)! z2 f2 e2 d6 d2 | c2 B2 A2 G2 F2 G2!<(! A3 A!<)! | %7
w: A- ve Ma- ri- a!|_ Lasst vom ird'- schen|Tun, zur Jung- frau be- tet, zu der|
 c4 =B4!>(! A4!>)! z2 A2 | G2 B2 A2 G2 |!<(! (F2 G2 A2)!<)! B2 | c6 c2!>(! A4!>)! z2 F2 | %11
w: Jung- frau Sohn; des|Him- mels Scha- ren|sel- * * ber|knie- en nun mit|
 (G2 d2 c2) B2 A2 c2 B2 A2 |!<(! (G2 AB!<)! A2) F2 |!>(! c4- c2!>)! B2 | %14
w: Li- * * lien- stä- ben vor des|Va- * * * ters|Thron, _ und|
 A2 G2 F2 A2"^cresc." c2 B2 A2 c2 |!>(! e4 c2!>)! c2 c3 B (A2 G) F |!<(! c3 F!<)! F2 B2 (A4 G4) | %17
w: durch die Ro- sen- wol- ken wehn die|Lie- der der sel'- gen Geis- * ter|fei- er- lich her- nie- *|
!>(! F8!>)! z8 | z16 |!p! F4 G2 G2 A4!<(! c4-!<)! |!>(! c2!>)! z2 f2 e2 d6 d2 | %21
w: der.||O heil'- ge An- dacht,|_ wel- che je- des|
 c2 B2 A2 G2 F2 G2 A2 (GF) |!<(! (E4!<)! G2) G2!>(! C4!>)! z4 | F4 G2 G2 A4!<(! c4-!<)! | %24
w: Herz mit lei- sen Schau- ern wun- der- *|bar _ durch- dringt.|O heil'- ger Glau- be,|
!>(! c2!>)! z2 f2 e2 d6 d2 | c2 B2 A2 G2 F2 G2!<(! A3 A!<)! | c4!>(! =B4!>)! A4 z2 A2 | %27
w: _ der sich him- mel-|wärts auf des Ge- be- tes wei- ßem|Fit- tig schwingt! In|
 G2 _B2 A2 G2 |!<(! (F2 G2 A2)!<)! B2 | c6 c2!>(! A4!>)! z2 F2 | G2 d2 c2 B2 (A2 c2 B2) A2 | %31
w: mil- de Trä- nen|löst _ _ sich|da der Schmerz, in-|des der Freu- de Ju- * * bel|
!<(! (G2 AB!<)! A2) F2!>(! c6!>)! z2 |!pp! F4 G2 G2 A4!<(! c4-!<)! |!>(! c2!>)! z2!p! f2 e2 d6 d2 | %34
w: sanf- * * * ter klingt.|A- ve Ma- ri- a!|_ Wenn die Glo- cke|
!>(! c4!>)! A2 A2 A3 G F2 G2 |!<(! (A4!<)! c2) B2 (A4 B2) E2 |!>(! G8!>)! F4 z4 |] %37
w: tö- net, so lä- cheln Erd' und|Him- * mel mild _ ver-|söh- net.|
V:2
!p! F4 E2 E2 F4!<(! G4-!<)! |!>(! G2!>)! z2 c2 c2 (c4 B2) A2 | G2 B2 (E4 F2) C2 C2 (CD) | %3
w: A- ve Ma- ri- a!|_ Meer und Him- * mel|ruh'n, dort hallt _ vom Turm der _|
!<(! C4!<)! =B,4!>(! C4!>)! z4 | C4 E2 E2 A4!<(! G4-!<)! |!>(! G2!>)! z2 F2 c2 (c4 B2) A2 | %6
w: Glo- cken Ton.|A- ve Ma- ri- a!|_ Lasst vom ird'- * schen|
 G2 B2 E6 D2!<(! C2 F2!<)! | E4 E4!>(! E4!>)! z2 E2 | E6 E2 |!<(! F6!<)! F2 | G6 G2!>(! F4!>)! F4 | %11
w: Tun, o be- tet zu der|Jung- frau Sohn; des|Him- mels|Scha- ren|knie- en nun, knie'n|
 G8 F8 |!<(! E4!<)! F4 |!>(! G6!>)! E2 | ^C4 D2 z2"^cresc." E4!>(! A2!>)! z2 | %15
w: vor des|Va- ters|Thron, nun|we- hen, we- hen|
!>(! ^G4 A2!>)! E2 A3 =G (F2 E) F |!<(! (F12!<)!!>(! E4)!>)! | F2 (c2 B2) A2 (G2 AB A2) G2 | %18
w: Lie- der der sel'- gen Geis- * ter|nie- *|der. sel'- * ge Lie- * * * der|
!<(! (A2!<)! c4) B2 A4!>(! G4!>)! |!p! F4 E2 E2 F4!<(! G4-!<)! |!>(! G2!>)! z2 c2 c2 (c4 B2) A2 | %21
w: wehn _ her- nie- der.|O heil'- ge An- dacht,|_ wel- che je- * des|
 G2 B2 (E4 F2) C2 C2 (CD) |!<(! C4!<)! =B,4!>(! C4!>)! z4 | C4 E2 E2 A4!<(! G4-!<)! | %24
w: Herz leis' schau- * ernd wun- der- *|bar durch- dringt.|O heil'- ger Glau- be,|
!>(! G2!>)! z2 F2 c2 (c4 B2) A2 | G2 B2 E4- E2 D2!<(! C2 (GF)!<)! | E4!>(! E4!>)! E4 z2 E2 | %27
w: _ der sich him- * mel-|wärts auf wei- * ßem Fit- tig _|be- tend schwingt! In|
 E6 E2 |!<(! F6!<)! F2 | G6 G2!>(! F4!>)! F4 | G6 G2 F6 F2 |!<(! E4!<)! F4!>(! G6!>)! z2 | %32
w: Trä- nen|löst sich|da der Schmerz, in-|des die Freu- de|sanf- ter klingt.|
!pp! F4 E2 E2 F4!<(! G4-!<)! |!>(! G2!>)! z2!p! F2 c2 (c4 B2) A2 |!>(! G4!>)! F2 z2 E4 E2 D2 | %35
w: A- ve Ma- ri- a!|_ Wenn die Glo- * cke|tö- net, lacht Erd' und|
!<(! (C4!<)! A2) G2 F4 E4 |!>(! E8!>)! F4 z4 |] %37
w: Him- * mel mild ver-|söh- net.|
V:3
!p! c4 c2 c2 c4!<(! e4-!<)! |!>(! e2!>)! z2 f2 f2 f6 f2 | e2 d2 c2 B2 A2 G2 F2 A2 | %3
w: A- ve Ma- ri- a!|_ Meer und Him- mel|ruh'n, von al- len Tür- men hallt der|
!<(! G4!<)! F4!>(! E2!>)! (B2 A2) G2 | (F2 f2) e2 d2 c4!<(! e4-!<)! |!>(! e2!>)! z2 c2 f2 f6 f2 | %6
w: Glo- cken Ton. A- * ve;|a- * ve Ma- ri- a!|_ Lasst vom ird'- schen|
 e2 d2 c2 B2 Ac B2!<(! A2 A2!<)! | (A4 ^G2) d2!>(! c4!>)! z2 c2 | _B2 d2 c2 B2 | %9
w: Tun, zur Jung- frau be- * tet, zu der|Jung- * frau Sohn; des|Him- mels Scha- ren|
!<(! (A2 c2 f2)!<)! d2 | e6 e2!>(! c4!>)! c4 | (B2 f2 e2) d2 c2 e2 d2 c2 |!<(! c6!<)! c2 | %13
w: sel- * * ber|knie- en nun mit|Li- * * lien- stä- ben vor des|Va- ters|
!>(! e6!>)! z2 |!>(! e4!>)! A2 z2"^cresc." c4 c2 z2 |!>(! e4 e2!>)! z2 (e4 f2)!<(! A2!<)! | %16
w: Thron,|sel'- ge Lie- der|we- hen fei- * er-|
 _e4 d4 (c4!>(! B4)!>)! | A2 (=e2 d2) c2 (B2 cd c2) B2 |!<(! (c2!<)! a4) g2 (f4!>(! e2)!>)! d2 | %19
w: lich her- nie- *|der, sel'- * ge Lie- * * * der|wehn _ her- nie- * der.|
!p! c4 c2 c2 c4!<(! e4-!<)! |!>(! e2!>)! z2 f2 f2 f6 f2 | e2 d2 c2 B2 A2 G2 F2 A2 | %22
w: O heil'- ge An- dacht,|_ wel- che je- des|Herz mit lei- sen Schau- ern wun- der-|
!<(! G4!<)! F4!>(! E2!>)! B2 A2 G2 |!<(! (F2 f2)!<)!!>(! e2 d2!>)! c4!<(! e4-!<)! | %24
w: bar durch- dringt. O heil'- ger,|o _ heil'- ger Glau- be,|
!>(! e2!>)! z2 c2 f2 f6 f2 | e2 d2 c2 B2 (Ac) B2!<(! A2 A2!<)! | (A4 ^G2)!>(! d2!>)! c4 z2 c2 | %27
w: _ der sich him- mel-|wärts auf des Ge- be- * tes wei- ßem|Fit- * tig schwingt! In|
 _B2 d2 c2 B2 |!<(! (A2 c2 f2)!<)! d2 | e6 e2!>(! c4!>)! c4 | B2 f2 e2 d2 (c2 e2 d2) c2 | %31
w: mil- de Trä- nen|löst _ _ sich|da der Schmerz, in-|des der Freu- de Ju- * * bel|
!<(! c6!<)! c2!>(! e6!>)! z2 |!pp! c4 c2 c2 c4!<(! e4-!<)! |!>(! e2!>)! z2!p! c2 f2 f6 f2 | %34
w: sanf- ter klingt.|A- ve Ma- ri- a!|_ Wenn die Glo- cke|
!>(! e4!>)! c2 z2 ^c4 A2 A2 |!<(! A4!<)! d4 (=c4 d2) c2 |!>(! B8!>)! A4 z4 |] %37
w: tö- net, lacht Erd' und|Him- mel mild _ ver-|söh- net.|
V:4
!p! A,,4 C,2 C,2 F,4!<(! C,4-!<)! |!>(! C,2!>)! z2 A,2 A,2 B,6 B,2 | C4 C,4 D,2 E,2 F,2 (E,F,) | %3
w: A- ve Ma- ri- a!|_ Meer und Him- mel|ruh'n, dort hallt vom Turm der _|
!<(! G,4!<)! G,,4!>(! C,2!>)! (G,2 F,2) C,2 | A,,4 C,2 C,2 F,4!<(! C,4-!<)! | %5
w: Glo- cken Ton. A- * ve,|a- ve Ma- ri- a!|
!>(! C,2!>)! z2 A,2 A,2 B,6 B,2 | C4 C,4 D,2 E,2!<(! F,2 D,2!<)! | E,4 E,,4!>(! A,,4!>)! z2 A,,2 | %8
w: _ Lasst vom ird'- schen|Tun, o be- tet zu der|Jung- frau Sohn; des|
 C,6 C,2 |!<(! C,6!<)! C,2 | C,6 C,2!>(! F,,4!>)! A,,4 | C,6 C,2 C,6 C,2 | %12
w: Him- mels|Scha- ren|knie- en nun mit|Li- lien- stä- ben|
!<(! B,2 (A,G,)!<)! F,2 A,2 |!>(! C6!>)! z2 |!>(! A,,4!>)! D,2 z2"^cresc." C,4!>(! F,2!>)! z2 | %15
w: vor des _ Va- ters|Thron,|sel'- ge Lie- der|
!>(! E,4 A,2!>)! z2 C,4 D,4 |!<(! A,,4!<)! B,,4 C,8 |!>(! F,,8!>)! z4 z2 C,2 | %18
w: we- hen fei- er-|lich her- nie-|der, sie|
!<(! F,4!<)! B,,4!>(! C,4 C,2!>)! z2 |!p! A,,4 C,2 C,2 F,4!<(! C,4-!<)! | %20
w: weh'n her- nie- der.|O heil'- ge An- dacht,|
!>(! C,2!>)! z2 A,2 A,2 B,6 B,2 | C4 C,4 D,2 E,2 F,2 (E,F,) | %22
w: _ wel- che je- des|Herz leis' schau- ernd wun- der- *|
!<(! G,4!<)! G,,4!>(! C,2!>)! G,2 F,2 C,2 | A,,4 C,4 F,4!<(! C,4-!<)! | %24
w: bar durch- dringt. O heil'- ger,|heil'- ger Glau- be,|
!>(! C,2!>)! z2 A,2 A,2 B,6 B,2 | C4 C,4 D,2 E,2 F,2 (E,D,) | %26
w: _ der sich him- mel-|wärts auf wei- ßem Fit- tig _|
!<(! (C,2 D,2!<)! E,2) E,,2!>(! A,,4!>)! z2 A,,2 | C,6 C,2 |!<(! C,6!<)! C,2 | %29
w: be- * * tend schwingt! In|Trä- nen|löst sich|
 C,6 C,2!>(! F,,4!>)! A,,4 | C,6 C,2 C,6 C,2 |!<(! (B,2 A,!<)!G, F,2) A,2!>(! C6!>)! z2 | %32
w: da der Schmerz, in-|des die Freu- de|sanf- * * * ter klingt.|
!pp! A,,4 C,2 C,2 F,4!<(! C,4-!<)! |!>(! C,2!>)! z2!p! A,2 A,2 B,6 B,2 | %34
w: A- ve Ma- ri- a!|_ Wenn die Glo- cke|
!>(! C4!>)! F,2 z2 A,4 D,2 E,2 |!<(! F,4!<)! B,,4 C,4 C,4 |!>(! F,8!>)! F,,4 z4 |] %37
w: tö- net, lacht Erd' und|Him- mel mild ver-|söh- net.|

